X:4
T:Balquhidder, As performed by Major Logan
T:Bochuidear
R:Slow Air
S:Simon Fraser Collection
N:No.77
N:transposed from F
O:Scottish
M:C
L:1/8
Q:1/4=80
K:G
d|e2 G>d B2 B>d|e2 G>d BAA>d|e2 G>d B2 Bd|e>fg>e dB B:|
~d|e>fg>e da|g>d e/d/c/B/ BAA~d|e>fg>e dA|
g<e g>e d>BB~d|e>fg>e da|g>d e/d/c/B/ BAA B/A/|
G>FE>F G>AB>d|e>fg>e dBB||
